svg/transport/baby_carriage_fill.svg

<?xml version="1.0" encoding="UTF-8"?>
<svg width="24px" height="24px" viewBox="0 0 24 24" version="1.1" xmlns="http://www.w3.org/2000/svg" xmlns:xlink="http://www.w3.org/1999/xlink">
    <title>baby_carriage_fill</title>
    <g id="页面-1" stroke="none" stroke-width="1" fill="none" fill-rule="evenodd">
        <g id="Transport" transform="translate(-480.000000, -48.000000)">
            <g id="baby_carriage_fill" transform="translate(480.000000, 48.000000)">
                 <path d="M24,0 L24,24 L0,24 L0,0 L24,0 Z M12.5934901,23.257841 L12.5819402,23.2595131 L12.5108777,23.2950439 L12.4918791,23.2987469 L12.4918791,23.2987469 L12.4767152,23.2950439 L12.4056548,23.2595131 C12.3958229,23.2563662 12.3870493,23.2590235 12.3821421,23.2649074 L12.3780323,23.275831 L12.360941,23.7031097 L12.3658947,23.7234994 L12.3769048,23.7357139 L12.4804777,23.8096931 L12.4953491,23.8136134 L12.4953491,23.8136134 L12.5071152,23.8096931 L12.6106902,23.7357139 L12.6232938,23.7196733 L12.6232938,23.7196733 L12.6266527,23.7031097 L12.609561,23.275831 C12.6075724,23.2657013 12.6010112,23.2592993 12.5934901,23.257841 L12.5934901,23.257841 Z M12.8583906,23.1452862 L12.8445485,23.1473072 L12.6598443,23.2396597 L12.6498822,23.2499052 L12.6498822,23.2499052 L12.6471943,23.2611114 L12.6650943,23.6906389 L12.6699349,23.7034178 L12.6699349,23.7034178 L12.678386,23.7104931 L12.8793402,23.8032389 C12.8914285,23.8068999 12.9022333,23.8029875 12.9078286,23.7952264 L12.9118235,23.7811639 L12.8776777,23.1665331 C12.8752882,23.1545897 12.8674102,23.1470016 12.8583906,23.1452862 L12.8583906,23.1452862 Z M12.1430473,23.1473072 C12.1332178,23.1423925 12.1221763,23.1452606 12.1156365,23.1525954 L12.1099173,23.1665331 L12.0757714,23.7811639 C12.0751323,23.7926639 12.0828099,23.8018602 12.0926481,23.8045676 L12.108256,23.8032389 L12.3092106,23.7104931 L12.3186497,23.7024347 L12.3186497,23.7024347 L12.3225043,23.6906389 L12.340401,23.2611114 L12.337245,23.2485176 L12.337245,23.2485176 L12.3277531,23.2396597 L12.1430473,23.1473072 Z" id="MingCute" fill-rule="nonzero"></path>
                <path d="M7.74618,2.60867 C8.50988,2.31254 9.31233,2.70174 9.62279,3.38206 L12.6429,9.9999 L18.0000012,9.9999 L18.0000012,8.49984 C18.0000012,7.11913 19.1193,5.99984 20.5000012,5.99984 L21.0000012,5.99984 C21.5523,5.99984 22.0000012,6.44756 22.0000012,6.99984 C22.0000012,7.55213 21.5523,7.99984 21.0000012,7.99984 L20.5000012,7.99984 C20.2239,7.99984 20.0000012,8.2237 20.0000012,8.49984 L20.0000012,10.9999 C20.0000012,12.6597 19.541,14.2872 18.6738,15.7024 C18.3394,16.2481 17.9493,16.754 17.5114,17.2129 C18.3883,17.6013 19.0000012,18.4791 19.0000012,19.4999 C19.0000012,20.8806 17.8807,21.9999 16.5000012,21.9999 C15.1193,21.9999 14.0000012,20.8806 14.0000012,19.4999 C14.0000012,19.495 14.0000012,19.4901 14.0000012,19.4852 C12.8165,19.9036 11.5541,20.0713 10.2939,19.9722 C9.50755,19.9103 8.73664,19.7456 7.99996,19.4852 L8.00000125,19.4999 C8.00000125,20.8806 6.88071,21.9999 5.50000125,21.9999 C4.11929,21.9999 3.00000125,20.8806 3.00000125,19.4999 C3.00000125,18.4791 3.61174,17.6013 4.4886,17.2129 C3.72488,16.4125 3.112,15.4747 2.68509,14.444 C2.04991,12.9106 1.85116,11.2314 2.11081,9.59199 C2.37046,7.95262 3.07839,6.41699 4.15635,5.15486 C5.12548,4.02016 6.35973,3.14628 7.74618,2.60867 Z M8.01198,4.66967 C7.11927,5.09105 6.32261,5.69803 5.67716,6.45376 C4.83875,7.43541 4.28814,8.62979 4.08619,9.90485 C4.08117,9.9365 4.07638,9.96816 4.07181,9.99984 L10.4444,9.99984 L8.01198,4.66967 Z" id="形状" fill="#09244B"></path>
            </g>
        </g>
    </g>
</svg>

<svg xmlns="http://www.w3.org/2000/svg" width="24" height="24"><g fill="none" fill-rule="evenodd"><path d="M24 0v24H0V0h24ZM12.593 23.258l-.011.002-.071.035-.02.004-.014-.004-.071-.035c-.01-.004-.019-.001-.024.005l-.004.01-.017.428.005.02.01.013.104.074.015.004.012-.004.104-.074.012-.016.004-.017-.017-.427c-.002-.01-.009-.017-.017-.018Zm.265-.113-.013.002-.185.093-.01.01-.003.011.018.43.005.012.008.007.201.093c.012.004.023 0 .029-.008l.004-.014-.034-.614c-.003-.012-.01-.02-.02-.022Zm-.715.002a.023.023 0 0 0-.027.006l-.006.014-.034.614c0 .012.007.02.017.024l.015-.002.201-.093.01-.008.004-.011.017-.43-.003-.012-.01-.01-.184-.092Z"/><path fill="#09244B" d="M7.746 2.609c.764-.296 1.566.093 1.877.773L12.643 10H18V8.5A2.5 2.5 0 0 1 20.5 6h.5a1 1 0 1 1 0 2h-.5a.5.5 0 0 0-.5.5V11a9 9 0 0 1-2.489 6.213A2.5 2.5 0 1 1 14 19.5v-.015a9.002 9.002 0 0 1-6 0v.015a2.5 2.5 0 1 1-3.511-2.287A9 9 0 0 1 7.746 2.609Zm.266 2.06A7 7 0 0 0 4.072 10h6.372L8.012 4.67Z"/></g></svg>
